alura/assets/api/cursos/premiere-pro-ritmo-sentimento-edicao.svg

<svg xmlns="http://www.w3.org/2000/svg" fill="none" viewBox="0 0 50 44"><path fill="#FDCF72" d="M2.43 10.29l19.55-7.12L25 5.08l5.51-3.13h8.74l4.84 3.43 3.68 5.83L6.85 26.09l-2.6-3.02-2.33-5.61"/><path fill="#FCC34F" d="M16.45 35.94l-6.03-5.58-7-8.85L45.31 6.28l2.96 5.37-.5 7.63-4.89 7.12"/><path stroke="#444" stroke-linecap="round" stroke-linejoin="round" stroke-miterlimit="10" stroke-width="2.5" d="M41.64 27.86c7.04-8.01 6.52-11.58 6.56-12.03.81-7.84-5.52-14.26-12.54-14.26C28.63 1.57 25 5.08 25 5.08s-3.63-3.51-10.66-3.51C7.32 1.57.99 7.99 1.8 15.83c.05.52-.67 5.35 10.91 16.56 2.64 2.55 4.71 4.46 6.34 5.89 5.53 4.84 5.95 4.11 5.95 4.11s.64.26 4.67-2.95c1.53-1.22 3.55-2.95 6.21-5.39"/><path stroke="#444" stroke-linecap="round" stroke-linejoin="round" stroke-miterlimit="10" d="M8.97 24.53l2.01-.04 1.77-9.48 2.59 12.95 2.84-19.11 2.74 14.92 1.71-4.86 1.95 9.44 1.61-4.17h1.37l1.1-3.45c.28-.87.07-1.85-.55-2.48a6.76 6.76 0 01-1.92-4.69c-.02-3.75 3.01-6.8 6.76-6.82 3.75-.02 6.8 3 6.82 6.75 0 .07 0 .13-.01.19h.01v.78l1.1 1.54c.24.33.2.82-.1 1.09l-1.01.92-.31 2.66c0 .86-.9 1.34-1.67 1.35h-.82c-1.93.01-2.36-.48-3.95-1.9m5.04-5.65h-.78"/><path stroke="#444" stroke-linecap="round" stroke-linejoin="round" stroke-miterlimit="10" d="M34.68 23.19c-.01.01.44-1.18.43-1.17l-.89 2.49h2.26l1.32 3.07 1.83-3.07h1.4"/><path fill="#444" d="M33.38 6.84s-1.48-.11-1.59 5.17h-1.32S30 8.33 31.71 6.74l1.67.1z"/><path stroke="#444" stroke-linecap="round" stroke-linejoin="round" stroke-miterlimit="10" d="M32.02 13.82c0-.53-.45-.95-1-.95s-.99.43-.99.96v.63c0 .88.75 1.58 1.66 1.58h.33"/><path stroke="#444" stroke-linecap="round" stroke-linejoin="round" stroke-miterlimit="10" d="M29.37 12.07l.83-.29h1.92l.73.3.25.8v3.57l-.24.81-.83.29h-1.91l-.73-.3-.26-.8v-3.57l.24-.81z"/><path fill="#444" d="M29.37 12.07l.83-.29h1.92l.4.06.33.24.19.36.06.44v3.57l-.24.81-.83.29h-1.91l-.73-.3-.26-.8v-3.57l.24-.81z"/></svg>

<svg width="50" height="44" viewBox="0 0 50 44" fill="none" xmlns="http://www.w3.org/2000/svg">
<path d="M2.43001 10.29L21.98 3.17L25 5.08L30.51 1.95H39.25L44.09 5.38L47.77 11.21L6.85001 26.09L4.25001 23.07L1.92001 17.46" fill="#FDCF72"/>
<path d="M16.45 35.94L10.42 30.36L3.42001 21.51L45.31 6.28L48.27 11.65L47.77 19.28L42.88 26.4" fill="#FCC34F"/>
<path d="M41.64 27.86C48.68 19.85 48.16 16.28 48.2 15.83C49.01 7.99 42.68 1.57 35.66 1.57C28.63 1.57 25 5.08 25 5.08C25 5.08 21.37 1.57 14.34 1.57C7.32 1.57 0.990001 7.99 1.8 15.83C1.85 16.35 1.13 21.18 12.71 32.39C15.35 34.94 17.42 36.85 19.05 38.28C24.58 43.12 25 42.39 25 42.39C25 42.39 25.64 42.65 29.67 39.44C31.2 38.22 33.22 36.49 35.88 34.05" stroke="#444444" stroke-width="2.5" stroke-miterlimit="10" stroke-linecap="round" stroke-linejoin="round"/>
<path d="M8.97 24.53L10.98 24.49L12.75 15.01L15.34 27.96L18.18 8.85L20.92 23.77L22.63 18.91L24.58 28.35L26.19 24.18H27.56L28.66 20.73C28.94 19.86 28.73 18.88 28.11 18.25C26.886 16.9948 26.1976 15.3132 26.19 13.56C26.17 9.81 29.2 6.76 32.95 6.74C36.7 6.72 39.75 9.74 39.77 13.49C39.77 13.56 39.77 13.62 39.76 13.68H39.77V14.46L40.87 16C41.11 16.33 41.07 16.82 40.77 17.09L39.76 18.01L39.45 20.67C39.45 21.53 38.55 22.01 37.78 22.02H36.96C35.03 22.03 34.6 21.54 33.01 20.12M38.05 14.47H37.27" stroke="#444444" stroke-miterlimit="10" stroke-linecap="round" stroke-linejoin="round"/>
<path d="M34.68 23.19C34.67 23.2 35.12 22.01 35.11 22.02L34.22 24.51H36.48L37.8 27.58L39.63 24.51H41.03" stroke="#444444" stroke-miterlimit="10" stroke-linecap="round" stroke-linejoin="round"/>
<path d="M33.38 6.84C33.38 6.84 31.9 6.73 31.79 12.01H30.47C30.47 12.01 30 8.33 31.71 6.74L33.38 6.84Z" fill="#444444"/>
<path d="M32.02 13.82C32.02 13.29 31.57 12.87 31.02 12.87C30.47 12.87 30.03 13.3 30.03 13.83V14.46C30.03 15.34 30.78 16.04 31.69 16.04H32.02" stroke="#444444" stroke-miterlimit="10" stroke-linecap="round" stroke-linejoin="round"/>
<path d="M29.37 12.07L30.2 11.78H32.12L32.85 12.08L33.1 12.88V16.45L32.86 17.26L32.03 17.55H30.12L29.39 17.25L29.13 16.45V12.88L29.37 12.07Z" stroke="#444444" stroke-miterlimit="10" stroke-linecap="round" stroke-linejoin="round"/>
<path d="M29.37 12.07L30.2 11.78H32.12L32.52 11.84L32.85 12.08L33.04 12.44L33.1 12.88V16.45L32.86 17.26L32.03 17.55H30.12L29.39 17.25L29.13 16.45V12.88L29.37 12.07Z" fill="#444444"/>
</svg>
